common/src/main/resources/files/plugins/datagrip/informixFileType.svg

<!--
  - The MIT License (MIT)
  -
  - Copyright (c) 2015-2024 Elior "Mallowigi" Boukhobza
  -
  - Permission is hereby granted, free of charge, to any person obtaining a copy
  - of this software and associated documentation files (the "Software"), to deal
  - in the Software without restriction, including without limitation the rights
  - to use, copy, modify, merge, publish, distribute, sublicense, and/or sell
  - copies of the Software, and to permit persons to whom the Software is
  - furnished to do so, subject to the following conditions:
  -
  - The above copyright notice and this permission notice shall be included in all
  - copies or substantial portions of the Software.
  -
  - THE SOFTWARE IS PROVIDED "AS IS", WITHOUT WARRANTY OF ANY KIND, EXPRESS OR
  - IMPLIED, INCLUDING BUT NOT LIMITED TO THE WARRANTIES OF MERCHANTABILITY,
  - FITNESS FOR A PARTICULAR PURPOSE AND NONINFRINGEMENT. IN NO EVENT SHALL THE
  - AUTHORS OR COPYRIGHT HOLDERS BE LIABLE FOR ANY CLAIM, DAMAGES OR OTHER
  - LIABILITY, WHETHER IN AN ACTION OF CONTRACT, TORT OR OTHERWISE, ARISING FROM,
  - OUT OF OR IN CONNECTION WITH THE SOFTWARE OR THE USE OR OTHER DEALINGS IN THE
  - SOFTWARE.
  -->
<svg data-big="true" width="16px" height="16px" viewBox="0 0 16 16" fill="#DB5860" xmlns="http://www.w3.org/2000/svg">
  <path
    d="M8.78305 1.39314C8.30255 1.09894 7.69771 1.09881 7.21708 1.3928L2.74601 4.12769C2.30043 4.40025 2.02872 4.88496 2.02872 5.40729V10.5099C2.02872 11.0652 2.33544 11.575 2.82598 11.8351L7.29769 14.2064C7.71648 14.4285 8.21561 14.4396 8.64382 14.2362L13.1371 12.1027C13.3865 11.9843 13.4927 11.686 13.3743 11.4366C13.2558 11.1871 12.9576 11.0809 12.7082 11.1994L8.21489 13.3329C8.07215 13.4007 7.90578 13.397 7.76618 13.323L3.29447 10.9517C3.13096 10.865 3.02872 10.695 3.02872 10.5099L3.02872 5.40729C3.02872 5.23318 3.11929 5.07161 3.26781 4.98076L7.73888 2.24587C7.89909 2.14787 8.10071 2.14791 8.26088 2.24598L12.7886 5.01827C12.9371 5.10914 13.0276 5.27066 13.0276 5.44469V7.2401H12.8466C12.6979 7.2401 12.6012 7.39656 12.6677 7.52954L13.3441 8.88233C13.4178 9.02974 13.6282 9.02974 13.7019 8.88233L14.3783 7.52954C14.4448 7.39656 14.3481 7.2401 14.1994 7.2401H14.0276V5.44469C14.0276 4.9226 13.7561 4.43806 13.3108 4.16543L8.78305 1.39314Z"
  />
  <path
    d="M8.77061 3.87018C8.29152 3.59116 7.6976 3.59915 7.22619 3.89097L5.90873 4.70652C5.67394 4.85186 5.60142 5.16003 5.74677 5.39482C5.89212 5.62962 6.20028 5.70213 6.43508 5.55679L7.75254 4.74124C7.90967 4.64397 8.10765 4.6413 8.26734 4.73431L10.7646 6.18873C10.919 6.27865 11.0137 6.44413 11.013 6.6228L11.0017 9.4516C11.0009 9.63973 10.8947 9.81151 10.7266 9.89614L8.2219 11.1579C8.07893 11.2299 7.91013 11.2291 7.76785 11.1558L5.27425 9.8703C5.10701 9.78408 5.00233 9.61128 5.00337 9.42313L5.02157 6.10627C5.02308 5.83013 4.80045 5.60505 4.52432 5.60353C4.24818 5.60202 4.0231 5.82464 4.02158 6.10078L4.00338 9.41764C4.00028 9.98209 4.31433 10.5005 4.81604 10.7591L7.30964 12.0446C7.73649 12.2647 8.2429 12.267 8.67178 12.051L11.1765 10.7892C11.6806 10.5353 11.9994 10.02 12.0017 9.4556L12.013 6.6268C12.0151 6.09079 11.7311 5.59436 11.2679 5.3246L8.77061 3.87018Z"
  />
  <path
    d="M7.7596 5.8773C7.83794 5.83229 7.92543 5.81015 8.01276 5.81086L7.99849 8.00634L8.25071 7.84124L8.00887 8.00374L10.0113 8.79277L10.0105 8.96988C10.0097 9.15966 9.90149 9.3326 9.73119 9.41636L8.22983 10.1548C8.09068 10.2232 7.92764 10.2232 7.78849 10.1548L6.28849 9.41703C6.11749 9.33292 6.00916 9.15893 6.00916 8.96836V7.17238C6.00916 6.99337 6.10486 6.82802 6.26007 6.73884L7.7596 5.8773Z"
  />
  <path d="M9.82273 6.78487C9.94564 6.87917 10.019 7.02631 10.0183 7.18371L10.0112 8.79278L8.0088 8.00374L9.82273 6.78487Z"
        fill="none"/>
  <path
    d="M8.01271 5.81086L7.99844 8.00634L9.84141 6.79993C9.81879 6.78078 9.7943 6.7635 9.7681 6.74839L8.25843 5.87772C8.18235 5.83384 8.0976 5.81156 8.01271 5.81086Z"
    fill="none"/>
</svg>

<svg xmlns="http://www.w3.org/2000/svg" width="16" height="16" fill="#DB5860" data-big="true"><path d="M8.783 1.393a1.5 1.5 0 0 0-1.566 0L2.746 4.128a1.5 1.5 0 0 0-.717 1.28v5.102a1.5 1.5 0 0 0 .797 1.325l4.472 2.371a1.5 1.5 0 0 0 1.346.03l4.493-2.133a.5.5 0 0 0-.429-.904l-4.493 2.134a.5.5 0 0 1-.449-.01l-4.472-2.371a.5.5 0 0 1-.265-.442V5.407a.5.5 0 0 1 .239-.426l4.47-2.735a.5.5 0 0 1 .523 0l4.528 2.772a.5.5 0 0 1 .239.427V7.24h-.181a.2.2 0 0 0-.18.29l.677 1.352a.2.2 0 0 0 .358 0l.676-1.352a.2.2 0 0 0-.179-.29h-.171V5.445a1.5 1.5 0 0 0-.717-1.28z"/><path d="M8.77 3.87a1.5 1.5 0 0 0-1.544.021l-1.317.816a.5.5 0 1 0 .526.85l1.318-.816a.5.5 0 0 1 .514-.007l2.498 1.455a.5.5 0 0 1 .248.434l-.011 2.829a.5.5 0 0 1-.275.444l-2.505 1.262a.5.5 0 0 1-.454-.002L5.274 9.87a.5.5 0 0 1-.27-.447l.018-3.317a.5.5 0 0 0-1-.005l-.019 3.317a1.5 1.5 0 0 0 .813 1.341l2.494 1.286a1.5 1.5 0 0 0 1.362.006l2.505-1.262a1.5 1.5 0 0 0 .825-1.333l.011-2.83a1.5 1.5 0 0 0-.745-1.301z"/><path d="M7.76 5.877a.5.5 0 0 1 .253-.066l-.015 2.195.253-.165-.242.163 2.002.789v.177a.5.5 0 0 1-.28.446l-1.501.739a.5.5 0 0 1-.442 0l-1.5-.738a.5.5 0 0 1-.279-.449V7.172a.5.5 0 0 1 .251-.433z"/><path fill="none" d="M9.823 6.785a.5.5 0 0 1 .195.399l-.007 1.609-2.002-.79z"/><path fill="none" d="m8.013 5.81-.015 2.196L9.841 6.8a.5.5 0 0 0-.073-.052l-1.51-.87a.5.5 0 0 0-.245-.067"/></svg>
